svg/krakend-light.svg

<svg xmlns="http://www.w3.org/2000/svg" xml:space="preserve" viewBox="0 0 512 512"><path d="M436.9 74.7C388.8 27.6 324.6 1.6 256 1.6S123.2 27.5 75.1 74.7C26.7 122.1 0 185.8 0 254.1c0 35.1 7.1 68.5 19.9 99h-.1c.1.4.6 1.4 1.4 3C60.6 446.8 151 510.4 256 510.4c141.2 0 256-114.9 256-256.3 0-68.2-26.7-132-75.1-179.4M90.1 90.1c44.1-43.2 103-67 165.9-67 62.4 0 120.8 23.4 164.8 65.9-49.3-31.9-104.9-39.7-150.9-33.3-77.2 8.8-130.7 66.2-130.3 140.1.4 74.1 60.6 134.4 134.3 134.4 30.3 0 58.9-9.9 82.3-28.2 1 5.8 1.6 11.8 1.8 17.8.8 30-9.5 56.9-29.8 77.7-25.2 25.9-63 40.2-106.5 40.2v.1C86.8 439.9 44 354.5 39.9 345.4c-11.8-28-18.4-58.8-18.4-91.2 0-62.5 24.4-120.7 68.6-164.1m78.6 146.3c20.9-19.2 47.8-29.8 76.4-29.8 47.7 0 88.1 29.7 104.7 72.5-20.8 19.1-47.5 29.6-76 29.6-47.7 0-88.6-30.1-105.1-72.3M256 489c-54.7 0-105.1-18.9-145.1-50.4 27.3 12.3 61.9 20.8 105.4 20.8q6.45 0 13.2-.3v-.1c46-1.7 86.4-18.1 114-46.5 24.4-25.1 36.8-57.3 35.9-93.3-1.9-75.3-60.9-134.2-134.3-134.2-30.5 0-59.1 10-82.6 28.5-.9-5.8-1.5-11.7-1.5-17.8-.3-52.4 33.3-108.7 108.8-118.3v.1C336.2 67.2 426 89.7 479.4 183.1c7.3 22.6 11.1 46.5 11.1 71.1C490.5 383.7 385.3 489 256 489m12.2-392.6c-21.4 0-38.8 17.4-38.8 38.8s17.4 38.8 38.8 38.8c21.3 0 38.8-17.4 38.8-38.8s-17.4-38.8-38.8-38.8m0 56.1c-9.6 0-17.3-7.8-17.3-17.3s7.8-17.3 17.3-17.3 17.2 7.7 17.3 17.3c0 9.5-7.7 17.3-17.3 17.3m-175.4 58c21.4 0 38.8-17.4 38.8-38.8s-17.4-38.8-38.8-38.8S54 150.3 54 171.7s17.4 38.8 38.8 38.8m0-56.1c9.5 0 17.2 7.8 17.3 17.3 0 9.5-7.8 17.3-17.3 17.3-9.6 0-17.3-7.8-17.3-17.3s7.8-17.3 17.3-17.3m337.1 16.7c0-28.2-22.9-51.1-51.1-51.1s-51.1 22.9-51.1 51.1 22.9 51.1 51.1 51.1c28.1 0 51-22.9 51.1-51.1m-51.1 29.6c-16.2 0-29.5-13.3-29.5-29.6s13.2-29.6 29.5-29.6c16.2 0 29.5 13.3 29.5 29.6s-13.2 29.6-29.5 29.6M93.4 234c-28.2 0-51.1 22.9-51.1 51.1s22.9 51.1 51.1 51.1 51.1-22.9 51.1-51.1S121.6 234 93.4 234m0 80.7c-16.2 0-29.5-13.3-29.5-29.6s13.2-29.6 29.5-29.6 29.5 13.3 29.5 29.6-13.2 29.6-29.5 29.6m341.2-79.8c-24.3 0-44.1 19.8-44.1 44.2s19.8 44.2 44.1 44.2 44.1-19.8 44.1-44.2-19.8-44.2-44.1-44.2m0 66.8c-12.5 0-22.6-10.1-22.6-22.6 0-12.4 10.1-22.6 22.6-22.6 12.4 0 22.6 10.1 22.6 22.6 0 12.4-10.1 22.6-22.6 22.6M177.7 413.9c24.3 0 44.1-19.9 44.1-44.2 0-24.4-19.8-44.2-44.1-44.2s-44.1 19.8-44.1 44.2 19.8 44.2 44.1 44.2m0-66.8c12.4 0 22.6 10.1 22.6 22.6 0 12.4-10.1 22.6-22.6 22.6s-22.6-10.1-22.6-22.6c0-12.4 10.1-22.6 22.6-22.6" style="fill:#fff"/></svg>

<?xml version="1.0" encoding="utf-8"?>
<!-- Generator: Adobe Illustrator 28.2.0, SVG Export Plug-In . SVG Version: 6.00 Build 0)  -->
<svg version="1.1" id="Layer_1" xmlns="http://www.w3.org/2000/svg" xmlns:xlink="http://www.w3.org/1999/xlink" x="0px" y="0px"
	 viewBox="0 0 512 512" style="enable-background:new 0 0 512 512;" xml:space="preserve">
<style type="text/css">
	.st0{fill:#FFFFFF;}
</style>
<path class="st0" d="M436.9,74.7C388.8,27.6,324.6,1.6,256,1.6S123.2,27.5,75.1,74.7C26.7,122.1,0,185.8,0,254.1
	c0,35.1,7.1,68.5,19.9,99l-0.1,0c0.1,0.4,0.6,1.4,1.4,3C60.6,446.8,151,510.4,256,510.4c141.2,0,256-114.9,256-256.3
	C512,185.9,485.3,122.1,436.9,74.7z M90.1,90.1c44.1-43.2,103-67,165.9-67c62.4,0,120.8,23.4,164.8,65.9
	c-49.3-31.9-104.9-39.7-150.9-33.3c-77.2,8.8-130.7,66.2-130.3,140.1c0.4,74.1,60.6,134.4,134.3,134.4c30.3,0,58.9-9.9,82.3-28.2
	c1,5.8,1.6,11.8,1.8,17.8c0.8,30-9.5,56.9-29.8,77.7c-25.2,25.9-63,40.2-106.5,40.2v0.1C86.8,439.9,44,354.5,39.9,345.4
	c-11.8-28-18.4-58.8-18.4-91.2C21.5,191.7,45.9,133.5,90.1,90.1z M168.7,236.4c20.9-19.2,47.8-29.8,76.4-29.8
	c47.7,0,88.1,29.7,104.7,72.5c-20.8,19.1-47.5,29.6-76,29.6C226.1,308.7,185.2,278.6,168.7,236.4z M256,489
	c-54.7,0-105.1-18.9-145.1-50.4c27.3,12.3,61.9,20.8,105.4,20.8c4.3,0,8.7-0.1,13.2-0.3l0-0.1c46-1.7,86.4-18.1,114-46.5
	c24.4-25.1,36.8-57.3,35.9-93.3C377.5,243.9,318.5,185,245.1,185c-30.5,0-59.1,10-82.6,28.5c-0.9-5.8-1.5-11.7-1.5-17.8
	C160.7,143.3,194.3,87,269.8,77.4l0,0.1C336.2,67.2,426,89.7,479.4,183.1c7.3,22.6,11.1,46.5,11.1,71.1
	C490.5,383.7,385.3,489,256,489z M268.2,96.4c-21.4,0-38.8,17.4-38.8,38.8c0,21.4,17.4,38.8,38.8,38.8c21.3,0,38.8-17.4,38.8-38.8
	C307,113.8,289.6,96.4,268.2,96.4z M268.2,152.5c-9.6,0-17.3-7.8-17.3-17.3c0-9.5,7.8-17.3,17.3-17.3s17.2,7.7,17.3,17.3
	C285.5,144.7,277.8,152.5,268.2,152.5z M92.8,210.5c21.4,0,38.8-17.4,38.8-38.8c0-21.4-17.4-38.8-38.8-38.8
	c-21.4,0-38.8,17.4-38.8,38.8C54,193.1,71.4,210.5,92.8,210.5z M92.8,154.4c9.5,0,17.2,7.8,17.3,17.3c0,9.5-7.8,17.3-17.3,17.3
	c-9.6,0-17.3-7.8-17.3-17.3S83.3,154.4,92.8,154.4z M429.9,171.1c0-28.2-22.9-51.1-51.1-51.1s-51.1,22.9-51.1,51.1
	c0,28.2,22.9,51.1,51.1,51.1C406.9,222.2,429.8,199.3,429.9,171.1z M378.8,200.7c-16.2,0-29.5-13.3-29.5-29.6
	c0-16.3,13.2-29.6,29.5-29.6c16.2,0,29.5,13.3,29.5,29.6C408.3,187.4,395.1,200.7,378.8,200.7z M93.4,234
	c-28.2,0-51.1,22.9-51.1,51.1s22.9,51.1,51.1,51.1c28.2,0,51.1-22.9,51.1-51.1S121.6,234,93.4,234z M93.4,314.7
	c-16.2,0-29.5-13.3-29.5-29.6s13.2-29.6,29.5-29.6s29.5,13.3,29.5,29.6C122.9,301.4,109.7,314.7,93.4,314.7z M434.6,234.9
	c-24.3,0-44.1,19.8-44.1,44.2s19.8,44.2,44.1,44.2s44.1-19.8,44.1-44.2C478.7,254.7,458.9,234.9,434.6,234.9z M434.6,301.7
	c-12.5,0-22.6-10.1-22.6-22.6c0-12.4,10.1-22.6,22.6-22.6c12.4,0,22.6,10.1,22.6,22.6C457.2,291.5,447.1,301.7,434.6,301.7z
	 M177.7,413.9c24.3,0,44.1-19.9,44.1-44.2c0-24.4-19.8-44.2-44.1-44.2s-44.1,19.8-44.1,44.2C133.6,394.1,153.4,413.9,177.7,413.9z
	 M177.7,347.1c12.4,0,22.6,10.1,22.6,22.6c0,12.4-10.1,22.6-22.6,22.6s-22.6-10.1-22.6-22.6C155.1,357.3,165.2,347.1,177.7,347.1z"
	/>
</svg>
